X:1
T:O combien est 3v
T:O combien est 3v
T:Tielman Susato
T:Source : Le premier Livre des Chanson à 3 parties---Anvers---T.Susato---1544. Editor : André Vierendeels (06/02/15).
T:Notes : Original clefs : G2, Original note values have been halved Editorial accidentals above the staff Notice above the S voice : "Chantez a deux si bon vous semble" See also de "Responce": "Puis que iay perdu" (Susato) to this chanson Square bracket indicates ligature
C:Tielman Susato
%%score [ 1 [ 2 3 ] ]
L:1/8
Q:1/4=120
M:4/4
K:C
V:1 treble nm="Superius" snm="S"
V:2 treble nm="Altus" snm="A"
V:3 treble-8 nm="Tenor" snm="T"
V:1
 d8 |: e6 d2 | c2 A2 c2 c2 | d6 d2 | e4 z2 f2 | f2 f2 e2 d2 | c2 d2 AG AB |"^-natural" c2 d3 B cd | %8
w: O-|com- bien|est- mal- heu- reux|le de-|sir dont|ie ne puis re-|cou- vrer que _ _ _|_ _ _ _ _|
w: De|mon en-|nuy iay for- mé|ung plai-|sir qui|est trop loing de|mon con- ten- * * *||
"^#" e2 d4 c2 | d4 z4 |1 d8 :|2 d8 || z2 d2 d2 d2 | ^c2 c2 d4- |"^-natural" d2 c2 B2 B2 | %15
w: * * tour-|ment,|O|ment,|ie voy mon|bien fi- nir|_ soub- dai- ne-|
w: * * te-|ment|de|||||
 A2 c2 c2 c2 | d4 d2 d2 | e4 f2 f2 | e2 d4 cB | ^c8 | d8 | e6 d2 | c2 A2 c2 c2 | d6 d2 | e4 z2 f2 | %25
w: ment, mon tra- vail|croist soubz cou-|ver- ver- te|pen- sé- * *|e,|sans|es- pe-|rer, ie souf- fre|doul- ce-|ment, le|
w: ||||||||||
 f4 z2 f2 | f6 e2 | d2 d2 c2 c2 | B2 B2 AB cd | e2 d4 c2 | d2 f2 f4 | z2 f2 f4- | f2 e2 d2 d2 | %33
w: mal, la|mal que|sent u- n'a- my-|e'of- fen- sé- * * *||e, le mal,|me mal|_ que sentu- n'a-|
w: ||||||||
 c2 c2 B2 B2 | AB cd e2 d2- |"^#" d2 c2 d4- | d8 |] %37
w: my- e'of- fen- sé-||* * e.|_|
w: ||||
V:2
 D3 E F2 G2- |: GFED C2 D2 | E2 F3 E E2 | F2 G4 F2 | G2 z A A2 A2 | F2 D2 G2 F2 | E2 D3 E FG | %7
w: O- * * com-|* * * * * bien|est mal _ heu-|reux le de-|sir dont ie ne|puis re- cou- vrer|que tour- * * *|
w: De _ _ mon|_ _ _ _ _ en-|nuy iay _ for-|mé ung plai-|sir qui est trop|loing de mon con-|ten- * * * *|
 A2 F2 GFED | C2 D2 E4 | D8 |1 F3 E F2 (G2 :|2 D2) G2 G2 G2 || F2 F2 G3 F | E2 F3 E DE | %14
w: ||ment,|O- * * com-|ment, ie voy mon|bien fi- nir _|_ soub- * * *|
w: |* * te-|ment,|de _ _ mon||||
 F/E/F/G/ A4 G2 | A2 F2 F2 E2 | D2 z G G2 F2 | E2 A2 A2 F2 | G4 F2 G2 | E8 | F3 E F2 G2- | %21
w: dai- * * * * ne-|ment, mon tra- vail|croist, mon tra- vail|croist soubz cou- ver-|te pen- sé-|e,|sans _ _ es-|
w: |||||||
 GFED C2 D2 | E2 F2 F2 E2 | F2 G4 F2 | G2 z A A4 | z ABB A3 G | FEDE FG A2 | F2 G2 E2 F2 | %28
w: * * * * * pe-|rer, ie souf- fre|doul- * ce-|ment, le mal|le mal que sent _|_ _ _ _ _ _ u-|n'a- my- e'of- fen-|
w: |||||||
 GFDE FGAF | GFED E4 | D2 z A A2 z A | B BAG FEDE | FG A2 F2 G2 | E2 F2 GFDE | FGAF GFED | E4 D4- | %36
w: sé- * * * * * * *||e, le mal le|mal que _ _ sent _ _ _|_ _ u- n'a- my-|e'of- fen sé- * * *||* e.|
w: ||||||||
 D8 |] %37
w: _|
w: |
V:3
 d6 G2 |: c6 B2 | A2 F2 A4 | d2 G2 d4 | z2 A2 d4 | d2 f2 c2 d2 | A2 D2 d3 c/B/ |"^b" A2 B2 G2 A2- | %8
w: O- com-|bien est|mal- heu- reux|le de- sir|dont ie|ne puis re- cou-|vrer que tour- * *||
w: De mon|en- nuy|iay for- me|ung plai- sir|qui est|trop loing de mon|con- * ten- * *||
"^b" A2 B2 A4 | D8 |1 d6 G2 :|2 z2 G2 G2 G2 || d2 d2 G4 | A4 _B3 c | de f2 d2 e2 | f2 F2 F2 c2 | %16
w: |ment,|O com-|ie voy mon|bien fi- nir|soub- dai- *|* * * * ne-|ment, mon tra- vail|
w: * te- ment,|ment,|de mon||||||
 G4 d4 | c2 A2 d2 d2 | G3 A _B2 G2 | A8 | d6 G2 | c6 B2 | A2 F2 A2 A2 | d2 G2 d4 | c2 A2 d2 z D | %25
w: croist soubz|cou- ver- te pen-|sé- * * *|e|sans es-|pe- *|rer, ie souf- fr|doul- ce- ment,|* le mal, le|
w: |||||||||
"^#" d2 z d f2 z D | d4 z2 A2 |"^b""^b" B2 B2 A2 A2 | GA Bc dc A2 | c2 d2 A4 | D4 z D d2 | %31
w: mal, le mal, le|mal, le|mal que sent u-|n'a- * * * my- * e'of-|fen- sé- *|e, le mal|
w: ||||||
 z G d2 z d f2 |"^b""^b" z2 A2 B2 B2 | A2 A2 GA Bc | dc AB c2 d2 | A4 D4- | D8 |] %37
w: le mal, le mal,|le mal que|sent u- n'a- * * *|my- * * * e'of- fen|sé- e.||
w: ||||||

